**kern
*clefF4
*k[b-]
*M4/4
=1-
4C
4C 4AA
2r
=2
8BB-
4C
4BB-
4AA
8GG
=3
1AA 1FF 1DD
=4
4BB-
2C
8BB-
8AA
=5
16AA
16BB-
2AA
(8GG#
16GG#)
16GG#
(16GG#
16FF)
=6
(1EE
=7
1EE)
=8
4FF
(8GG
8GG#)
(4FF
8.FF)
16FF-
=9
4GG
8GG
(16FF
4FF#)
16GG
4GG
=10
1AA
=11
*-